X: 9008
T: Da Auld Resting Chair
R: barndance
M: 4/4
K: Dmajor
|:f3 g e3 f|d2 A2 F2 D2|G2 e2 F2 d2|B2 ed c2 A2|
f3 g e3 f|d2 A2 F2 D2|G2 e2 A2 c2|d6 A2:|
GFED d3 A|B2 d2 A2 F2|G3 A F2 d2|B2 ed c2 A2|
GFED d3 A|B2 d2 A2 F2|G2 AB A2 c2|d6 A2|
GFED d3 A|B2 d2 A2 F2|G3 A F2 d2|B2 ed c2 A2|
f3 g e3 f|d2 A2 F2 D2|G2 e2 A2 c2|d8||

